app/dist/common/images/vittia-on-ed-nm.svg

<svg fill="none" height="18" width="18" xmlns="http://www.w3.org/2000/svg"><path d="m0 0h18v18h-18z" fill="#f0f3fa"/><g clip-rule="evenodd" fill-rule="evenodd"><path d="m8 8.139c0-.658-.404-1.139-1.047-1.139h-1.722c-.705 0-1.231-.565-1.231-1.223v-.777h2.837c1.781 0 3.163 1.315 3.163 3.139 0 1.68-2 1.66-2 0z" fill="#adae98"/><path d="m8.881 15c.642 0 1.119-.592 1.119-1.25v-5.581c0-.659.575-1.169 1.217-1.169h1.615c.643 0 1.168-.565 1.168-1.223v-.777h-2.666c-1.781 0-3.334 1.495-3.334 3.318v6.682z" fill="#85716b"/></g></svg>

<!-- by TradingView --><svg width="18" height="18" fill="none" xmlns="http://www.w3.org/2000/svg"><path fill="#F0F3FA" d="M0 0h18v18H0z"/><path fill-rule="evenodd" clip-rule="evenodd" d="M8 8.139C8 7.481 7.596 7 6.953 7H5.231C4.526 7 4 6.435 4 5.777V5h2.837C8.618 5 10 6.315 10 8.139c0 1.68-2 1.66-2 0Z" fill="#ADAE98"/><path fill-rule="evenodd" clip-rule="evenodd" d="M8.881 15C9.523 15 10 14.408 10 13.75V8.169C10 7.51 10.575 7 11.217 7h1.615C13.475 7 14 6.435 14 5.777V5h-2.666C9.553 5 8 6.495 8 8.318V15h.881Z" fill="#85716B"/></svg>
